icons/svg/seamark_big/topmark_vertical_black_2conesbasetogether_big.svg

<?xml version="1.0" encoding="UTF-8" standalone="no"?>
<svg
   xmlns:dc="http://purl.org/dc/elements/1.1/"
   xmlns:cc="http://creativecommons.org/ns#"
   xmlns:rdf="http://www.w3.org/1999/02/22-rdf-syntax-ns#"
   xmlns:svg="http://www.w3.org/2000/svg"
   xmlns="http://www.w3.org/2000/svg"
   xmlns:sodipodi="http://sodipodi.sourceforge.net/DTD/sodipodi-0.dtd"
   xmlns:inkscape="http://www.inkscape.org/namespaces/inkscape"
   width="1060"
   height="1060"
   id="svg2"
   version="1.1"
   inkscape:version="0.48.4 r9939"
   sodipodi:docname="topmark_vertical_black_rhombus_big.svg">
  <defs
     id="defs13">
    <inkscape:path-effect
       effect="gears"
       id="path-effect3774"
       is_visible="true"
       teeth="6"
       phi="-1.2" />
    <inkscape:path-effect
       effect="bend_path"
       id="path-effect3772"
       is_visible="false"
       bendpath="m 95.790098,316.51174 c 144.429032,-206.42506 223.313032,-11.7428 339.548092,0"
       prop_scale="1.19"
       scale_y_rel="false"
       vertical="false"
       bendpath-nodetypes="cc" />
  </defs>
  <sodipodi:namedview
     pagecolor="#ffffff"
     bordercolor="#666666"
     borderopacity="1"
     objecttolerance="10"
     gridtolerance="10"
     guidetolerance="10"
     inkscape:pageopacity="0"
     inkscape:pageshadow="2"
     inkscape:window-width="1920"
     inkscape:window-height="1004"
     id="namedview11"
     showgrid="false"
     inkscape:zoom="0.57543862"
     inkscape:cx="733.49323"
     inkscape:cy="832.95369"
     inkscape:window-x="1680"
     inkscape:window-y="0"
     inkscape:window-maximized="1"
     inkscape:current-layer="svg2" />
  <metadata
     id="metadata2975">image/svg+xmlen<rdf:RDF>
  <cc:Work
     rdf:about="">
    <dc:format>image/svg+xml</dc:format>
    <dc:type
       rdf:resource="http://purl.org/dc/dcmitype/StillImage" />
    <dc:title></dc:title>
  </cc:Work>
</rdf:RDF>
</metadata>
  <path
     style="opacity:0.43913042;color:#000000;fill:#acd8f3;fill-opacity:1;fill-rule:nonzero;stroke:#a35151;stroke-width:0;stroke-linecap:round;stroke-linejoin:miter;stroke-miterlimit:4;stroke-opacity:1;stroke-dashoffset:0;marker:none;visibility:visible;display:inline;overflow:visible;enable-background:accumulate"
     d="m 531.89062,56.495938 c -6.25543,-0.228037 -12.5192,3.11429 -15.8125,8.4375 l -57.09375,92.218752 c -1.90854,3.10116 -2.83405,6.79744 -2.61209,10.43206 0.22196,3.63462 1.59037,7.19081 3.86209,10.03669 -1e-5,0.0104 -1e-5,0.0208 0,0.0312 -4.44825,5.60989 -5.02021,13.99425 -1.375,20.15625 l 39.9375,67.5 0,246.0625 c -0.004,4.67246 1.91839,9.31752 5.22231,12.62145 3.30393,3.30394 7.94898,5.22591 12.62144,5.22235 l 25,0 c 4.67245,0.004 9.31749,-1.91841 12.62142,-5.22233 3.30392,-3.30393 5.22589,-7.94897 5.22233,-12.62142 l 0,-246.125 41.53125,-67.125 c 1.90855,-3.10116 2.83406,-6.79744 2.61209,-10.43206 -0.22196,-3.63462 -1.59037,-7.19081 -3.86209,-10.03669 4.48429,-5.61457 5.07012,-14.03746 1.40625,-20.21875 L 546.57812,65.214688 c -3.03012,-5.10584 -8.75412,-8.503705 -14.6875,-8.71875 z"
     inkscape:connector-curvature="0"
     sodipodi:nodetypes="cccscccccsccscccscccc"
     id="path8" />
  <path
     inkscape:connector-curvature="0"
     style="fill:#000000;fill-opacity:1;stroke:none"
     d="m 585.8365,188.8806 -111.67002,-0.004 54.5814,92.2382"
     id="path3822-6-6"
     sodipodi:nodetypes="ccc"
     inkscape:transform-center-x="-3.0332734"
     inkscape:transform-center-y="-371.35237" />
  <path
     inkscape:connector-curvature="0"
     style="fill:#000000;fill-opacity:1;stroke:none"
     d="m 474.16648,166.6831 111.67002,0.004 -54.58138,-92.238191"
     id="path3822-6-6-6"
     sodipodi:nodetypes="ccc"
     inkscape:transform-center-x="-2.984648"
     inkscape:transform-center-y="-477.78027" />
  <path
     style="color:#000000;fill:none;stroke:#000000;stroke-width:23.10206032;stroke-linecap:butt;stroke-linejoin:miter;stroke-miterlimit:4;stroke-opacity:1;stroke-dasharray:none;stroke-dashoffset:0;marker:none;visibility:visible;display:inline;overflow:visible;enable-background:accumulate"
     d="m 530.00149,506.56545 0,-380.6294"
     id="path3065-7"
     inkscape:connector-curvature="0" />
</svg>

<svg width="1060" height="1060" viewBox="0 0 1060 1060" fill="none" xmlns="http://www.w3.org/2000/svg">
<path opacity="0.43913" d="M531.891 56.4958C525.635 56.2678 519.371 59.6101 516.078 64.9333L458.984 157.152C457.076 160.253 456.15 163.95 456.372 167.584C456.594 171.219 457.963 174.775 460.234 177.621C460.234 177.631 460.234 177.642 460.234 177.652C455.786 183.262 455.214 191.646 458.859 197.808L498.797 265.308V511.371C498.793 516.043 500.715 520.688 504.019 523.992C507.323 527.296 511.968 529.218 516.641 529.215H541.641C546.313 529.219 550.958 527.296 554.262 523.992C557.566 520.688 559.488 516.043 559.484 511.371V265.246L601.016 198.121C602.924 195.02 603.85 191.323 603.628 187.689C603.406 184.054 602.037 180.498 599.766 177.652C604.25 172.038 604.836 163.615 601.172 157.433L546.578 65.2146C543.548 60.1088 537.824 56.7109 531.891 56.4958V56.4958Z" fill="#ACD8F3"/>
<path d="M585.837 188.88L474.167 188.876L528.748 281.115" fill="black"/>
<path d="M474.167 166.683L585.837 166.687L531.255 74.4487" fill="black"/>
<path d="M530.001 506.565V125.936" stroke="black" stroke-width="23.1021"/>
</svg>
